X: 100312
M: C|
L: 1/8
K: A
uE2 |\
|| (ug>a) |\
(b>g)e>c d2e>d | (c>e)A>c e2d>c | B>f(^d>f) | B>f(d>f) | (g>a) g>f e2 g>a |
(b>g)e>c d2e>d | (c>e)A>c e2a2 | (g>b)e>g (f>a)^d>f | ue2 ue2 "^D.C."e2 :|


